X:1
T:Never Grow Old
T:James Cleveland Moore, 1914
T:Never Grow Old
T:Public Domain
T:Public Domain
C:James Cleveland Moore, 1914
Z:Public Domain
%%score ( 1 2 ) ( 3 4 )
L:1/8
M:6/4
K:Eb
V:1 treble 
V:2 treble 
V:3 bass 
V:4 bass 
V:1
 E[EF] | [EG]3 [E^F] [EG]2 [B,E]4 [EG][=FA] | [GB]3 [^F=A] [GB]2 [EG]4 [GB][GB] | %3
w: 1.~I have|of a land on the far|a- way strand, ’Tis a beau-|
w: 2.~In that|ti- ful home where we’ll nev-|er more roam, We shall be|
w: 3.~When our|here is done and the life|crown is won, And our trou-|
 [Ac]2 [Ae]2 [Ac]2 [GB] [EG]3 E2 | [DF]6- [DF]4 E[EF] | [EG]3 [E^F] [EG]2 [B,E]4 [EG][=FA] | %6
w: ti- ful home of the soul;|by * Je- sus|high, where we ne- ver shall|
w: in the sweet by and by;|py * praise to|King through e- ter- ni- ty|
w: bles and tri- als are o’er;|our * sor- row|end, and our voic- es will|
 [GB]3 [^F=A] [GB]2 [EG]4 [GB][GB] | [Ac]2 [Ae]2 [Ac]2 [GB] [EG]3 [DF]2 | [B,E]6- [B,E]6 || %9
w: die, ’Tis a land where we|ne- ver grow old. * *||
w: sing, ’Tis a land where we|ne- ver shall die. Ne- ver|grow *|
w: blend, With the loved ones who’ve|gone on be- fore. * *||
"^Refrain" [GB] [EG]3 [GB]2 (G2 A2 B2) | [Ac] [Ae]3 [Ac]2 [GB]4 [GB][GB] | %11
w: ||
w: old, ne- ver grow * *|In a land where we’ll ne-|
w: ||
 [GB]2 [EG]2 [EG]2 [EG] [B,F]3 [CE]2 | ([DB]6 [FB]6) | [GB] [EG]3 [GB]2 (G2 A2 B2) | %14
w: |||
w: ver grow old; Ne- ver grow|old, *|ne- ver grow old, * *|
w: |||
 [Ac] [Ae]3 [Ac]2 [GB]4 [GB][GB] | [GB]2 [EG]2 E2 [EG] [EG]3 [DF]2 | [B,E]6- [B,E]4 |] %17
w: |||
w: a land where we’ll ne- ver|grow old. * * * *||
w: |||
V:2
 E x | x12 | x12 | x10 E2 | x10 E x | x12 | x12 | x12 | x12 || x6 e6 | x12 | x12 | x12 | x6 e6 | %14
w: heard|||Built|on||||||||||
w: beau-|||Hap-|the|||||old,||||In|
w: work|||All|will||||||||||
 x12 | x4 E2 x6 | x10 |] %17
w: |||
w: |||
w: |||
V:3
 [E,G,][E,A,] | [E,B,]3 [E,=A,] [E,B,]2 [E,G,]4 [E,B,][E,B,] | %2
w: ~ ~|~ ~ ~ ~ ~ ~|
 [E,E]3 [E,E] [E,E]2 [E,B,]4 [E,E][E,E] | [A,E]2 [A,C]2 [A,E]2 [E,E] [E,B,]3 [C,=A,]2 | %4
w: ~ ~ ~ ~ ~ ~|~ ~ ~ ~ ~ ~|
 [B,,B,]6- [B,,B,]4 [E,G,][E,A,] | [E,B,]3 [E,=A,] [E,B,]2 [E,G,]4 [E,B,][E,B,] | %6
w: ~ * ~ ~|~ ~ ~ ~ ~ ~|
 [E,E]3 [E,E] [E,E]2 [E,B,]4 [E,E][E,E] | [A,E]2 [A,C]2 [A,E]2 [B,E] B,3 [B,,A,]2 | %8
w: ~ ~ ~ ~ ~ ~|~ ~ ~ ~ ~ ~|
 [E,G,]6- [E,G,]6 || [E,E] [E,B,]3 [E,E]2 E,2 F,2 [G,E]2 | [A,E] [A,C]3 [A,E]2 [E,E]4 [E,E][E,E] | %11
w: ~ *|~ ~ ~ Where we’ll ~|~ ~ ~ ~ ~ ~|
 [E,E]2 [E,B,]2 [E,B,]2 [E,B,] [D,B,]3 [C,=A,]2 | ([B,,B,]6 [B,,D]6) | %13
w: ~ ~ ~ ~ ~ ~|~ *|
 [E,E] [E,B,]3 [E,E]2 E,2 F,2 [G,E]2 | [A,E] [A,C]3 [A,E]2 [E,E]4 [E,E][E,E] | %15
w: ~ ~ Where we’ll * *||
 [E,E]2 [E,B,]2 [C,=A,]2 [B,,B,] [B,,B,]3 [B,,_A,]2 | [E,G,]6- [E,G,]4 |] %17
w: ||
V:4
 x2 | x12 | x12 | x12 | x12 | x12 | x12 | x7 B,3 x2 | x12 || x6 B,4 x2 | x12 | x12 | x12 | %13
w: |||||||~||~||||
 x6 B,4 x2 | x12 | x12 | x10 |] %17
w: ||||

